frontend/public/svg/interface/scan.svg

<svg width="158" height="156" viewBox="0 0 158 156" fill="none" xmlns="http://www.w3.org/2000/svg">
<g clip-path="url(#clip0)">
<path d="M106.71 153.225C108.807 153.64 110.932 153.902 113.068 154.007C114.256 154.067 115.444 154.131 116.632 154.196C122.009 154.485 127.568 154.783 133.046 154.814C133.331 154.814 133.616 154.814 133.902 154.814C138.998 154.814 144.304 154.56 149.685 154.056C154.706 153.586 156.05 152.168 156.222 147.162C156.588 136.482 156.855 125.62 157.114 115.117L157.256 109.331C157.273 108.282 157.162 107.234 156.924 106.211C156.37 103.744 154.733 102.198 152.545 102.082C151.437 102.023 150.344 102.354 149.455 103.016C148.566 103.678 147.938 104.63 147.679 105.706C147.2 107.466 146.948 109.279 146.93 111.103C146.865 116.384 146.868 121.751 146.87 126.942C146.87 128.748 146.87 130.555 146.87 132.361C146.87 135.003 146.87 137.646 146.87 140.37V143.689L146.546 143.769C146.29 143.846 146.028 143.898 145.762 143.925C144.397 143.985 143.032 144.051 141.667 144.119C138.006 144.296 134.22 144.481 130.501 144.537C126.414 144.601 122.257 144.58 118.235 144.561C115.78 144.549 113.324 144.537 110.871 144.544C109.495 144.503 108.119 144.602 106.764 144.839C104.417 145.331 102.917 146.939 102.85 149.033C102.816 150.304 103.263 152.528 106.71 153.225Z" fill="black"/>
<path d="M43.2818 144.629C36.2752 144.526 29.1517 144.499 22.2619 144.473C20.0561 144.465 17.8503 144.456 15.6445 144.446C14.5293 144.442 13.4141 144.442 12.2132 144.446H11.0377C11.015 144.223 10.993 144.018 10.9729 143.826C10.908 143.204 10.8548 142.713 10.8386 142.241C10.679 137.655 10.5219 133.068 10.3675 128.482C10.1556 122.231 9.9407 115.979 9.72272 109.726C9.70624 108.258 9.58174 106.792 9.35033 105.342C9.24997 104.581 8.88627 103.878 8.32211 103.356C7.75795 102.834 7.02857 102.524 6.26019 102.481C4.5293 102.344 3.21105 103.245 2.56229 105.018C2.3265 105.699 2.18161 106.408 2.13147 107.126L2.05243 108.015C1.90192 109.685 1.74687 111.414 1.70081 113.128C1.35437 125.921 1.06424 137.539 0.814467 148.648C0.730128 152.377 2.93601 154.766 6.86555 155.202C8.14649 155.32 9.43292 155.369 10.7192 155.347C11.1201 155.347 11.5204 155.347 11.9207 155.352L17.6901 155.422C26.3796 155.527 35.3643 155.636 44.203 155.681H44.2445C45.6434 155.645 47.0222 155.34 48.3051 154.782C49.2556 154.457 50.0811 153.843 50.6668 153.028C51.2526 152.213 51.5698 151.237 51.5744 150.234C51.579 149.231 51.2709 148.252 50.6926 147.431C50.1145 146.611 49.2948 145.99 48.3473 145.655C46.7327 145.018 45.0178 144.67 43.2818 144.629Z" fill="black"/>
<path d="M5.46434 55.9116H5.56872C7.74987 55.9116 9.48596 54.2675 10.1146 51.596C10.2635 50.9 10.3395 50.1904 10.3416 49.4787C10.3526 48.8961 10.3676 48.3134 10.3818 47.7309C10.4279 45.8996 10.4753 44.0065 10.4059 42.1377C10.2096 36.8816 9.99504 31.6262 9.76239 26.3714C9.6002 22.5532 9.44119 18.734 9.28549 14.914C9.23943 13.7444 9.25111 12.5618 9.26408 11.3099C9.26797 10.9105 9.2718 10.504 9.27439 10.0877C9.82779 10.0845 10.365 10.0768 10.8898 10.0697C12.382 10.0477 13.7968 10.0287 15.1819 10.1064C24.9678 10.6559 33.2002 10.8185 41.5724 9.80739C43.085 9.64473 44.5518 9.19213 45.8924 8.47453C46.4537 8.169 46.9238 7.72062 47.2549 7.17488C47.586 6.62907 47.7662 6.00546 47.7771 5.36759C47.78 4.71575 47.6098 4.07494 47.2837 3.51007C46.9577 2.9452 46.4875 2.47659 45.9209 2.15193C44.773 1.51972 43.5016 1.14296 42.1939 1.0476C40.8122 0.947933 39.4257 0.928669 38.0417 0.99039C37.6265 1.00075 37.2114 1.01174 36.7968 1.01757C30.887 1.10388 24.9772 1.19184 19.0674 1.28117L5.50837 1.48377C3.28637 1.51678 2.00511 2.55305 1.59379 4.65549C1.27157 6.2155 1.09461 7.80205 1.06509 9.39461C0.959994 20.0557 0.878155 31.7736 0.805493 46.2713C0.765463 47.9668 0.855699 49.6629 1.07539 51.3448C1.50098 54.1482 3.14048 55.8559 5.46434 55.9116Z" fill="black"/>
<path d="M146.384 16.9851C146.207 19.1426 146.024 21.3745 145.894 23.576L145.717 26.4955C145.416 31.4073 145.105 36.4859 145.038 41.4922C145.044 43.6885 145.573 45.8519 146.58 47.8047C146.881 48.469 147.359 49.0382 147.961 49.4505C148.564 49.8626 149.268 50.1017 149.997 50.142H150.051C150.787 50.1106 151.501 49.8812 152.118 49.4782C152.735 49.0752 153.231 48.5135 153.554 47.8524C154.598 45.938 155.232 43.8278 155.414 41.656C156.368 30.1378 155.766 18.4525 155.184 7.15451L155.113 5.77896C154.983 3.29915 153.672 1.70126 151.313 1.15429C149.543 0.699719 147.721 0.479737 145.893 0.500348C136.582 0.798756 126.76 1.18575 114.981 1.71784C113.588 1.81371 112.218 2.12098 110.919 2.62873C110.197 2.88451 109.587 3.38119 109.19 4.0346C108.794 4.68801 108.636 5.45802 108.744 6.21419C108.743 6.99113 109.046 7.73773 109.59 8.29421C110.133 8.8507 110.873 9.17293 111.652 9.19183C112.048 9.2339 112.443 9.28174 112.837 9.32964C113.869 9.45392 114.935 9.58274 116.002 9.61381C118.446 9.68501 120.928 9.72385 123.333 9.76139C124.993 9.78728 126.652 9.81298 128.313 9.84988C132.634 9.94438 136.955 10.0505 141.437 10.1599L146.736 10.2895C146.736 10.4993 146.741 10.696 146.745 10.8837C146.755 11.5757 146.763 12.1219 146.725 12.6559C146.619 14.0968 146.501 15.541 146.384 16.9851Z" fill="black"/>
<path d="M111.037 78.9068C112.216 78.8764 113.382 78.6576 114.492 78.2595C117.459 77.2284 117.898 75.1525 117.744 73.5938C117.536 71.4907 115.911 69.9313 113.605 69.6206C112.133 69.4595 110.65 69.4232 109.172 69.5125C99.7821 69.8297 90.3933 70.1579 81.0051 70.4964L72.5543 70.7961C72.3921 70.8013 72.2371 70.866 72.1197 70.9774L65.3723 71.0816C54.5631 71.2499 43.7542 71.4188 32.9454 71.5891C32.7806 71.5962 32.6086 71.5813 32.4347 71.5729C31.82 71.4764 31.1904 71.5748 30.6345 71.8538C29.6386 72.4947 28.5715 73.2934 28.1991 74.3576C27.6626 75.8898 28.5111 77.3572 30.3114 78.0097C31.0992 78.2848 31.9189 78.4583 32.7507 78.5275C33.7842 78.6233 34.8183 78.7366 35.8531 78.8512C38.4301 79.1826 41.0235 79.3729 43.6214 79.4208H43.757C65.4159 79.3366 87.4369 79.1302 108.732 78.9301L111.037 78.9068Z" fill="black"/>
</g>
<defs>
<clipPath id="clip0">
<rect width="157" height="156" fill="white" transform="translate(0.777344)"/>
</clipPath>
</defs>
</svg>

<svg xmlns="http://www.w3.org/2000/svg" width="158" height="156" fill="none" viewBox="0 0 158 156"><g fill="#000" clip-path="url(#a)"><path d="M106.71 153.225c2.097.415 4.222.677 6.358.782q1.782.09 3.564.189c5.377.289 10.936.587 16.414.618h.856c5.096 0 10.402-.254 15.783-.758 5.021-.47 6.365-1.888 6.537-6.894.366-10.68.633-21.542.892-32.045l.142-5.786a13 13 0 0 0-.332-3.12c-.554-2.467-2.191-4.013-4.379-4.129a4.75 4.75 0 0 0-3.09.934 4.74 4.74 0 0 0-1.776 2.69 21.4 21.4 0 0 0-.749 5.397c-.065 5.281-.062 10.648-.06 15.839v16.747l-.324.08a4 4 0 0 1-.784.156q-2.048.091-4.095.194c-3.661.177-7.447.362-11.166.418-4.087.064-8.244.043-12.266.024a952 952 0 0 0-7.364-.017 20.3 20.3 0 0 0-4.107.295c-2.347.492-3.847 2.1-3.914 4.194-.034 1.271.413 3.495 3.86 4.192m-63.428-8.596c-7.007-.103-14.13-.13-21.02-.156q-3.31-.012-6.617-.027c-1.116-.004-2.23-.004-3.432 0h-1.175l-.065-.62c-.065-.622-.118-1.113-.134-1.585q-.24-6.88-.472-13.759-.317-9.376-.644-18.756a30 30 0 0 0-.373-4.384 3.3 3.3 0 0 0-1.028-1.986 3.3 3.3 0 0 0-2.062-.875c-1.73-.137-3.049.764-3.698 2.537a8.2 8.2 0 0 0-.43 2.108l-.08.889c-.15 1.67-.305 3.399-.351 5.113a7694 7694 0 0 0-.887 35.52c-.084 3.729 2.122 6.118 6.052 6.554a35 35 0 0 0 3.853.145q.601-.001 1.202.005l5.77.07c8.689.105 17.673.214 26.512.259h.041a10.9 10.9 0 0 0 4.061-.899 4.84 4.84 0 0 0 3.27-4.548 4.83 4.83 0 0 0-.882-2.803 4.85 4.85 0 0 0-2.346-1.776 14.8 14.8 0 0 0-5.065-1.026M5.464 55.912h.105c2.18 0 3.917-1.645 4.546-4.316.149-.696.224-1.406.227-2.117q.017-.875.04-1.748c.046-1.831.093-3.724.024-5.593q-.294-7.884-.644-15.767-.242-5.727-.477-11.457c-.046-1.17-.034-2.352-.02-3.604l.01-1.222q.829-.006 1.615-.018c1.492-.022 2.907-.041 4.292.036 9.786.55 18.018.713 26.39-.299a11.8 11.8 0 0 0 4.32-1.332 3.62 3.62 0 0 0 1.885-3.107 3.68 3.68 0 0 0-1.856-3.216 9.1 9.1 0 0 0-3.727-1.104A36 36 0 0 0 38.042.99c-.416.01-.83.022-1.245.028q-8.865.13-17.73.263l-13.559.203c-2.222.033-3.503 1.069-3.914 3.171-.322 1.56-.5 3.147-.529 4.74a7580 7580 0 0 0-.26 36.876c-.04 1.696.05 3.392.27 5.074.426 2.803 2.065 4.51 4.39 4.567m140.919-38.927c-.177 2.158-.36 4.39-.49 6.591l-.177 2.92c-.301 4.911-.612 9.99-.679 14.996.006 2.197.535 4.36 1.542 6.313a3.99 3.99 0 0 0 3.417 2.337h.054a4.1 4.1 0 0 0 3.503-2.29 15.7 15.7 0 0 0 1.86-6.196c.954-11.518.352-23.203-.23-34.501l-.071-1.376c-.13-2.48-1.441-4.078-3.8-4.625a20.8 20.8 0 0 0-5.42-.654c-9.311.299-19.133.686-30.912 1.218a13.8 13.8 0 0 0-4.062.91 3.304 3.304 0 0 0-2.175 3.585 2.98 2.98 0 0 0 2.908 2.978q.594.065 1.185.139c1.032.124 2.098.253 3.165.284 2.444.071 4.926.11 7.331.147 1.66.026 3.319.052 4.98.089 4.321.094 8.642.2 13.124.31l5.299.13q.001.314.009.594c.01.692.018 1.238-.02 1.772-.106 1.44-.224 2.885-.341 4.33m-35.347 61.921a11.1 11.1 0 0 0 3.455-.647c2.967-1.032 3.406-3.108 3.252-4.666-.208-2.103-1.833-3.663-4.139-3.973a26 26 0 0 0-4.433-.108q-14.085.476-28.167.983l-8.45.3a.66.66 0 0 0-.435.181l-6.748.105-32.427.507c-.164.007-.336-.008-.51-.016a3 3 0 0 0-1.8.28c-.996.642-2.064 1.44-2.436 2.505-.536 1.532.312 3 2.112 3.652a10 10 0 0 0 2.44.517c1.033.096 2.067.21 3.102.324 2.577.332 5.17.522 7.768.57h.136c21.659-.084 43.68-.29 64.975-.49z"/></g><defs><clipPath id="a"><path fill="#fff" d="M.777 0h157v156h-157z"/></clipPath></defs></svg>
